icons/svg/sort-up_20.svg

<?xml version="1.0" encoding="UTF-8"?>
<svg width="20px" height="20px" viewBox="0 0 20 20" version="1.1" xmlns="http://www.w3.org/2000/svg" xmlns:xlink="http://www.w3.org/1999/xlink">
    <!-- Generator: Sketch 58 (84663) - https://sketch.com -->
    <title>sort-up_20</title>
    <desc>Created with Sketch.</desc>
    <g id="New-Icon" stroke="none" stroke-width="1" fill="none" fill-rule="evenodd">
        <g id="format/sort-up_20" fill="#171B1F">
            <path d="M3.4999,0 C3.5529,0 3.6059,0.008 3.6579,0.026 C3.8619,0.094 3.9999,0.285 3.9999,0.5 L3.9999,19.5 C3.9999,19.776 3.7759,20 3.4999,20 C3.2239,20 2.9999,19.776 2.9999,19.5 L2.9999,2 L0.8999,4.8 C0.7349,5.021 0.4199,5.066 0.1999,4.9 C-0.0211,4.734 -0.0661,4.421 0.0999,4.2 L3.0999,0.2 C3.1959,0.072 3.3459,0 3.4999,0 Z M6.4999,15 L19.4999,15 C19.7759,15 19.9999,15.224 19.9999,15.5 C19.9999,15.7453333 19.8229123,15.9495802 19.5897381,15.9919396 L19.4999,16 L6.4999,16 C6.2239,16 5.9999,15.776 5.9999,15.5 C5.9999,15.2546667 6.17688765,15.0504198 6.41006187,15.0080604 L6.4999,15 L19.4999,15 Z M19.4999,9.5 C19.7759,9.5 19.9999,9.724 19.9999,10 C19.9999,10.2453333 19.8229123,10.4495802 19.5897381,10.4919396 L19.4999,10.5 L6.4999,10.5 C6.2239,10.5 5.9999,10.276 5.9999,10 C5.9999,9.75466667 6.17688765,9.55041975 6.41006187,9.50806036 L6.4999,9.5 L19.4999,9.5 Z M19.4999,4 C19.7759,4 19.9999,4.224 19.9999,4.5 C19.9999,4.74533333 19.8229123,4.94958025 19.5897381,4.99193964 L19.4999,5 L6.4999,5 C6.2239,5 5.9999,4.776 5.9999,4.5 C5.9999,4.25466667 6.17688765,4.05041975 6.41006187,4.00806036 L6.4999,4 L19.4999,4 Z" id="fill"></path>
        </g>
    </g>
</svg>

<svg width="20" height="20" xmlns="http://www.w3.org/2000/svg"><path d="M3.5 0a.5.5 0 01.5.5v19a.5.5 0 01-1 0V2L.9 4.8a.5.5 0 11-.8-.6l3-4a.501.501 0 01.4-.2zm3 15h13a.5.5 0 01.09.992L19.5 16h-13a.5.5 0 01-.09-.992L6.5 15h13zm13-5.5a.5.5 0 01.09.992l-.09.008h-13a.5.5 0 01-.09-.992L6.5 9.5h13zm0-5.5a.5.5 0 01.09.992L19.5 5h-13a.5.5 0 01-.09-.992L6.5 4h13z" fill="#171B1F" fill-rule="evenodd"/></svg>
